;START_OF_HEADER
;HEADER_VERSION:0.1
;FLAVOR:Griffin
;GENERATOR.NAME:Cura_SteamEngine
;GENERATOR.VERSION:4.13.1
;GENERATOR.BUILD_DATE:2022-01-28
;TARGET_MACHINE.NAME:Ultimaker 2+ Connect
;EXTRUDER_TRAIN.0.INITIAL_TEMPERATURE:210
;EXTRUDER_TRAIN.0.MATERIAL.VOLUME_USED:140757
;EXTRUDER_TRAIN.0.MATERIAL.GUID:506c9f0d-e3aa-4bd4-b2d2-23e2425b1aa9
;EXTRUDER_TRAIN.0.NOZZLE.DIAMETER:0.4
;EXTRUDER_TRAIN.0.NOZZLE.NAME:unknown
;BUILD_PLATE.TYPE:glass
;BUILD_PLATE.INITIAL_TEMPERATURE:60
;PRINT.TIME:50312
;PRINT.GROUPS:1
;PRINT.SIZE.MIN.X:8.325
;PRINT.SIZE.MIN.Y:6.825
;PRINT.SIZE.MIN.Z:0.27
;PRINT.SIZE.MAX.X:214.675
;PRINT.SIZE.MAX.Y:213.175
;PRINT.SIZE.MAX.Z:20.07
;END_OF_HEADER
;Generated with Cura_SteamEngine 4.13.1
T0
M82 ;absolute extrusion mode

G92 E0
M109 S210
G280 S1
G0 Z20.001
G1 F1500 E-6.5
;LAYER_COUNT:100
;LAYER:0
M107
G0 F4500 X9.314 Y7.715 Z0.27
;TYPE:SKIRT
G1 F1500 E0
G1 F1800 X10.14 Y7.144 E0.01487
G1 X11.103 Y6.86 E0.02975
G1 X11.83 Y6.825 E0.04053
G1 X210.838 Y6.825 E2.9885
G1 X212.038 Y6.882 E3.00629
G1 X212.987 Y7.21 E3.02117
G1 X213.787 Y7.817 E3.03604
G1 X214.357 Y8.643 E3.05091
G1 X214.64 Y9.606 E3.06578
G1 X214.675 Y10.33 E3.07651
G1 X214.675 Y209.303 E6.02396
G1 X214.62 Y210.532 E6.04219
G1 X214.294 Y211.482 E6.05707
G1 X213.689 Y212.282 E6.07192
G1 X212.863 Y212.854 E6.08681
G1 X211.901 Y213.139 E6.10167
G1 X211.17 Y213.175 E6.11251
G1 X12.166 Y213.175 E9.06042
G1 X10.967 Y213.119 E9.0782
G1 X10.017 Y212.794 E9.09307
G1 X9.216 Y212.188 E9.10795
G1 X8.645 Y211.362 E9.12283
G1 X8.36 Y210.399 E9.1377
G1 X8.325 Y209.658 E9.14869
G1 X8.325 Y10.631 E12.09694
G1 X8.381 Y9.465 E12.11423
G1 X8.707 Y8.515 E12.12911
G1 X9.314 Y7.715 E12.14399
G1 F1500 E5.64399
;MESH:adaptor lid final.stl
G0 F4500 X12.54 Y9.304
G0 X12.54 Y11.04
G0 X210.488 Y11.012
G0 X210.905 Y209.405
G1 F1500 E12.14399
G0 F4500 X210.975 Y209.475
;TYPE:WALL-INNER
G1 F1800 X12.025 Y209.475 E15.0911
G1 X12.025 Y10.525 E18.03821
G1 X210.975 Y10.525 E20.98531
G1 X210.975 Y209.475 E23.93242
G0 F4500 X211.3 Y209.8
;TYPE:WALL-OUTER
G1 F1800 X11.7 Y209.8 E26.88916
G1 X11.7 Y10.2 E29.8459
G1 X211.3 Y10.2 E32.80264
G1 X211.3 Y209.8 E35.75937
G0 F4500 X211.1 Y209.8
G0 X210.915 Y209.415
G0 X210.635 Y209.135
;TYPE:SKIN
G1 F1800 X12.365 Y209.135 E38.6083
G1 X12.365 Y10.865 E41.45722
G1 X210.635 Y10.865 E44.30615
G1 X210.635 Y209.135 E47.15507
G0 F4500 X210.56 Y11.497
G0 X210.477 Y11.497
G1 F1800 X210.002 Y11.022 E47.16472
G0 F4500 X209.507 Y11.022
G1 F1800 X210.477 Y11.992 E47.18443
G0 F4500 X210.477 Y12.487
G1 F1800 X209.012 Y11.022 E47.2142
G0 F4500 X208.517 Y11.022
G1 F1800 X210.477 Y12.982 E47.25403
G0 F4500 X210.477 Y13.477
G1 F1800 X208.022 Y11.022 E47.30392
G0 F4500 X207.527 Y11.022
G1 F1800 X210.477 Y13.972 E47.36387
G0 F4500 X210.477 Y14.467
G1 F1800 X207.032 Y11.022 E47.43387
G0 F4500 X206.537 Y11.022
G1 F1800 X210.477 Y14.962 E47.51393
G0 F4500 X210.477 Y15.457
G1 F1800 X206.042 Y11.022 E47.60406
G0 F4500 X205.547 Y11.022
G1 F1800 X210.477 Y15.952 E47.70424
G0 F4500 X210.477 Y16.447
G1 F1800 X205.052 Y11.022 E47.81448
G0 F4500 X204.557 Y11.022
G1 F1800 X210.477 Y16.942 E47.93478
G0 F4500 X210.477 Y17.437
G1 F1800 X204.062 Y11.022 E48.06513
G0 F4500 X203.567 Y11.022
G1 F1800 X210.477 Y17.932 E48.20555
G0 F4500 X210.477 Y18.427
G1 F1800 X203.072 Y11.022 E48.35602
G0 F4500 X202.577 Y11.022
G1 F1800 X210.477 Y18.922 E48.51656
G0 F4500 X210.477 Y19.417
G1 F1800 X202.082 Y11.022 E48.68715
G0 F4500 X201.587 Y11.022
G1 F1800 X210.477 Y19.912 E48.8678
G0 F4500 X210.477 Y20.407
G1 F1800 X201.092 Y11.022 E49.05851
G0 F4500 X200.597 Y11.022
G1 F1800 X210.477 Y20.902 E49.25928
G0 F4500 X210.477 Y21.397
G1 F1800 X200.102 Y11.022 E49.47011
G0 F4500 X199.607 Y11.022
G1 F1800 X210.477 Y21.892 E49.69099
G0 F4500 X210.477 Y22.387
G1 F1800 X199.112 Y11.022 E49.92194
G0 F4500 X198.617 Y11.022
G1 F1800 X210.477 Y22.881 E50.16293
G0 F4500 X210.477 Y23.376
G1 F1800 X198.122 Y11.022 E50.41398
G0 F4500 X197.627 Y11.022
G1 F1800 X210.477 Y23.871 E50.6751
G0 F4500 X210.477 Y24.366
G1 F1800 X197.132 Y11.022 E50.94627
G0 F4500 X196.637 Y11.022
G1 F1800 X210.477 Y24.861 E51.22749
G0 F4500 X210.477 Y25.356
G1 F1800 X196.142 Y11.022 E51.51878
G0 F4500 X195.647 Y11.022
G1 F1800 X210.477 Y25.851 E51.82013
G0 F4500 X210.477 Y26.346
G1 F1800 X195.152 Y11.022 E52.13153
G0 F4500 X194.658 Y11.022
G1 F1800 X210.477 Y26.841 E52.45299
G0 F4500 X210.477 Y27.336
G1 F1800 X194.163 Y11.022 E52.7845
G0 F4500 X193.668 Y11.022
G1 F1800 X210.477 Y27.831 E53.12607
G0 F4500 X210.477 Y28.326
G1 F1800 X193.173 Y11.022 E53.4777
G0 F4500 X192.678 Y11.022
G1 F1800 X210.477 Y28.821 E53.83939
G0 F4500 X210.477 Y29.316
G1 F1800 X192.183 Y11.022 E54.21113
G0 F4500 X191.688 Y11.022
G1 F1800 X210.477 Y29.811 E54.59294
G0 F4500 X210.477 Y30.306
G1 F1800 X191.193 Y11.022 E54.9848
G0 F4500 X190.698 Y11.022
G1 F1800 X210.477 Y30.801 E55.38673
G0 F4500 X210.477 Y31.296
G1 F1800 X190.203 Y11.022 E55.79871
G0 F4500 X189.708 Y11.022
G1 F1800 X210.477 Y31.791 E56.22075
G0 F4500 X210.477 Y32.286
G1 F1800 X189.213 Y11.022 E56.65285
G0 F4500 X188.718 Y11.022
G1 F1800 X210.477 Y32.781 E57.09501
G0 F4500 X210.477 Y33.276
G1 F1800 X188.223 Y11.022 E57.54723
G0 F4500 X187.728 Y11.022
G1 F1800 X210.477 Y33.771 E58.0095
G0 F4500 X210.477 Y34.266
G1 F1800 X187.233 Y11.022 E58.48184
G0 F4500 X186.738 Y11.022
G1 F1800 X210.477 Y34.761 E58.96423
G0 F4500 X210.477 Y35.256
G1 F1800 X186.243 Y11.022 E59.45668
G0 F4500 X185.748 Y11.022
G1 F1800 X210.477 Y35.751 E59.95919
G0 F4500 X210.477 Y36.246
G1 F1800 X185.253 Y11.022 E60.47176
G0 F4500 X184.758 Y11.022
G1 F1800 X210.477 Y36.741 E60.99439
G0 F4500 X210.477 Y37.236
G1 F1800 X184.263 Y11.022 E61.52708
G0 F4500 X183.768 Y11.022
G1 F1800 X210.477 Y37.731 E62.06982
G0 F4500 X210.477 Y38.226
G1 F1800 X183.273 Y11.022 E62.62263
G0 F4500 X182.778 Y11.022
G1 F1800 X210.477 Y38.721 E63.18549
G0 F4500 X210.477 Y39.216
G1 F1800 X182.283 Y11.022 E63.75841
G0 F4500 X181.788 Y11.022
G1 F1800 X210.477 Y39.711 E64.34139
G0 F4500 X210.477 Y40.206
G1 F1800 X181.293 Y11.022 E64.93443
G0 F4500 X180.798 Y11.022
G1 F1800 X210.477 Y40.701 E65.53753
G0 F4500 X210.477 Y41.196
G1 F1800 X180.303 Y11.022 E66.15069
G0 F4500 X179.808 Y11.022
G1 F1800 X210.477 Y41.691 E66.77391
G0 F4500 X210.477 Y42.185
G1 F1800 X179.313 Y11.022 E67.40717
G0 F4500 X178.818 Y11.022
G1 F1800 X210.477 Y42.68 E68.05049
G0 F4500 X210.477 Y43.175
G1 F1800 X178.323 Y11.022 E68.70388
G0 F4500 X177.828 Y11.022
G1 F1800 X210.477 Y43.67 E69.36732
G0 F4500 X210.477 Y44.165
G1 F1800 X177.333 Y11.022 E70.04082
G0 F4500 X176.838 Y11.022
G1 F1800 X210.477 Y44.66 E70.72437
G0 F4500 X210.477 Y45.155
G1 F1800 X176.343 Y11.022 E71.41799
G0 F4500 X175.848 Y11.022
G1 F1800 X210.477 Y45.65 E72.12167
G0 F4500 X210.477 Y46.145
G1 F1800 X175.353 Y11.022 E72.8354
G0 F4500 X174.859 Y11.022
G1 F1800 X210.477 Y46.64 E73.55919
G0 F4500 X210.477 Y47.135
G1 F1800 X174.364 Y11.022 E74.29303
G0 F4500 X173.869 Y11.022
G1 F1800 X210.477 Y47.63 E75.03693
G0 F4500 X210.477 Y48.125
G1 F1800 X173.374 Y11.022 E75.79089
G0 F4500 X172.879 Y11.022
G1 F1800 X210.477 Y48.62 E76.55491
G0 F4500 X210.477 Y49.115
G1 F1800 X172.384 Y11.022 E77.32898
G0 F4500 X171.889 Y11.022
G1 F1800 X210.477 Y49.61 E78.11312
G0 F4500 X210.477 Y50.105
G1 F1800 X171.394 Y11.022 E78.90731
G0 F4500 X170.899 Y11.022
G1 F1800 X210.477 Y50.6 E79.71157
G0 F4500 X210.477 Y51.095
G1 F1800 X170.404 Y11.022 E80.52588
G0 F4500 X169.909 Y11.022
G1 F1800 X210.477 Y51.59 E81.35025
G0 F4500 X210.477 Y52.085
G1 F1800 X169.414 Y11.022 E82.18468
G0 F4500 X168.919 Y11.022
G1 F1800 X210.477 Y52.58 E83.02917
G0 F4500 X210.477 Y53.075
G1 F1800 X168.424 Y11.022 E83.88371
G0 F4500 X167.929 Y11.022
G1 F1800 X210.477 Y53.57 E84.74832
G0 F4500 X210.477 Y54.065
G1 F1800 X167.434 Y11.022 E85.62298
G0 F4500 X166.939 Y11.022
G1 F1800 X210.477 Y54.56 E86.50771
G0 F4500 X210.477 Y55.055
G1 F1800 X166.444 Y11.022 E87.40249
G0 F4500 X165.949 Y11.022
G1 F1800 X210.477 Y55.55 E88.30733
G0 F4500 X210.477 Y56.045
G1 F1800 X165.454 Y11.022 E89.22223
G0 F4500 X164.959 Y11.022
G1 F1800 X210.477 Y56.54 E90.14719
G0 F4500 X210.477 Y57.035
G1 F1800 X164.464 Y11.022 E91.0822
G0 F4500 X163.969 Y11.022
G1 F1800 X210.477 Y57.53 E92.02728
G0 F4500 X210.477 Y58.025
G1 F1800 X163.474 Y11.022 E92.98241
G0 F4500 X162.979 Y11.022
G1 F1800 X210.477 Y58.52 E93.94761
G0 F4500 X210.477 Y59.015
G1 F1800 X162.484 Y11.022 E94.92286
G0 F4500 X161.989 Y11.022
G1 F1800 X210.477 Y59.51 E95.90817
G0 F4500 X210.477 Y60.005
G1 F1800 X161.494 Y11.022 E96.90354
G0 F4500 X160.999 Y11.022
G1 F1800 X210.477 Y60.5 E97.90897
G0 F4500 X210.477 Y60.995
G1 F1800 X160.504 Y11.022 E98.92445
G0 F4500 X160.009 Y11.022
G1 F1800 X210.477 Y61.49 E99.95
G0 F4500 X210.477 Y61.984
G1 F1800 X159.514 Y11.022 E100.98559
G0 F4500 X159.019 Y11.022
G1 F1800 X210.477 Y62.479 E102.03125
G0 F4500 X210.477 Y62.974
G1 F1800 X158.524 Y11.022 E103.08696
G0 F4500 X158.029 Y11.022
G1 F1800 X210.477 Y63.469 E104.15273
G0 F4500 X210.477 Y63.964
G1 F1800 X157.534 Y11.022 E105.22856
G0 F4500 X157.039 Y11.022
G1 F1800 X210.477 Y64.459 E106.31445
G0 F4500 X210.477 Y64.954
G1 F1800 X156.544 Y11.022 E107.41039
G0 F4500 X156.049 Y11.022
G1 F1800 X210.477 Y65.449 E108.5164
G0 F4500 X210.477 Y65.944
G1 F1800 X155.555 Y11.022 E109.63245
G0 F4500 X155.06 Y11.022
G1 F1800 X210.477 Y66.439 E110.75857
G0 F4500 X210.477 Y66.934
G1 F1800 X154.565 Y11.022 E111.89474
G0 F4500 X154.07 Y11.022
G1 F1800 X210.477 Y67.429 E113.04097
G0 F4500 X210.477 Y67.924
G1 F1800 X153.575 Y11.022 E114.19726
G0 F4500 X153.08 Y11.022
G1 F1800 X210.477 Y68.419 E115.36361
G0 F4500 X210.477 Y68.914
G1 F1800 X152.585 Y11.022 E116.54001
G0 F4500 X152.09 Y11.022
G1 F1800 X210.477 Y69.409 E117.72648
G0 F4500 X210.477 Y69.904
G1 F1800 X151.595 Y11.022 E118.923
G0 F4500 X151.1 Y11.022
G1 F1800 X210.477 Y70.399 E120.12959
G0 F4500 X210.477 Y70.894
G1 F1800 X150.605 Y11.022 E121.34623
G0 F4500 X150.11 Y11.022
G1 F1800 X210.477 Y71.389 E122.57293
G0 F4500 X210.477 Y71.884
G1 F1800 X149.615 Y11.022 E123.80969
G0 F4500 X149.12 Y11.022
G1 F1800 X210.477 Y72.379 E125.0565
G0 F4500 X210.477 Y72.874
G1 F1800 X148.625 Y11.022 E126.31338
G0 F4500 X148.13 Y11.022
G1 F1800 X210.477 Y73.369 E127.58032
G0 F4500 X210.477 Y73.864
G1 F1800 X147.635 Y11.022 E128.85731
G0 F4500 X147.14 Y11.022
G1 F1800 X210.477 Y74.359 E130.14436
G0 F4500 X210.477 Y74.854
G1 F1800 X146.645 Y11.022 E131.44148
G0 F4500 X146.15 Y11.022
G1 F1800 X210.477 Y75.349 E132.74865
G0 F4500 X210.477 Y75.844
G1 F1800 X145.655 Y11.022 E134.06588
G0 F4500 X145.16 Y11.022
G1 F1800 X210.477 Y76.339 E135.39316
G0 F4500 X210.477 Y76.834
G1 F1800 X144.665 Y11.022 E136.73051
G0 F4500 X144.17 Y11.022
G1 F1800 X210.477 Y77.329 E138.07792
G0 F4500 X210.477 Y77.824
G1 F1800 X143.675 Y11.022 E139.43538
G0 F4500 X143.18 Y11.022
G1 F1800 X210.477 Y78.319 E140.8029
G0 F4500 X210.477 Y78.814
G1 F1800 X142.685 Y11.022 E142.18049
G0 F4500 X142.19 Y11.022
G1 F1800 X210.477 Y79.309 E143.56813
G0 F4500 X210.477 Y79.804
G1 F1800 X141.695 Y11.022 E144.96582
G0 F4500 X141.2 Y11.022
G1 F1800 X210.477 Y80.299 E146.37358
G0 F4500 X210.477 Y80.794
G1 F1800 X140.705 Y11.022 E147.7914
G0 F4500 X140.21 Y11.022
G1 F1800 X210.477 Y81.288 E149.21927
G0 F4500 X210.477 Y81.783
G1 F1800 X139.715 Y11.022 E150.65719
G0 F4500 X139.22 Y11.022
G1 F1800 X210.477 Y82.278 E152.10517
G0 F4500 X210.477 Y82.773
G1 F1800 X138.725 Y11.022 E153.56321
G0 F4500 X138.23 Y11.022
G1 F1800 X210.477 Y83.268 E155.03131
G0 F4500 X210.477 Y83.763
G1 F1800 X137.735 Y11.022 E156.50947
G0 F4500 X137.24 Y11.022
G1 F1800 X210.477 Y84.258 E157.99769
G0 F4500 X210.477 Y84.753
G1 F1800 X136.745 Y11.022 E159.49597
G0 F4500 X136.25 Y11.022
G1 F1800 X210.477 Y85.248 E161.0043
G0 F4500 X210.477 Y85.743
G1 F1800 X135.756 Y11.022 E162.52269
G0 F4500 X135.261 Y11.022
G1 F1800 X210.477 Y86.238 E164.05113
G0 F4500 X210.477 Y86.733
G1 F1800 X134.766 Y11.022 E165.58963
G0 F4500 X134.271 Y11.022
G1 F1800 X210.477 Y87.228 E167.13819
G0 F4500 X210.477 Y87.723
G1 F1800 X133.776 Y11.022 E168.69681
G0 F4500 X133.281 Y11.022
G1 F1800 X210.477 Y88.218 E170.26549
G0 F4500 X210.477 Y88.713
G1 F1800 X132.786 Y11.022 E171.84422
G0 F4500 X132.291 Y11.022
G1 F1800 X210.477 Y89.208 E173.43302
G0 F4500 X210.477 Y89.703
G1 F1800 X131.796 Y11.022 E175.03187
G0 F4500 X131.301 Y11.022
G1 F1800 X210.477 Y90.198 E176.64079
G0 F4500 X210.477 Y90.693
G1 F1800 X130.806 Y11.022 E178.25976
G0 F4500 X130.311 Y11.022
G1 F1800 X210.477 Y91.188 E179.88879
G0 F4500 X210.477 Y91.683
G1 F1800 X129.816 Y11.022 E181.52788
G0 F4500 X129.321 Y11.022
G1 F1800 X210.477 Y92.178 E183.17703
G0 F4500 X210.477 Y92.673
G1 F1800 X128.826 Y11.022 E184.83623
G0 F4500 X128.331 Y11.022
G1 F1800 X210.477 Y93.168 E186.5055
G0 F4500 X210.477 Y93.663
G1 F1800 X127.836 Y11.022 E188.18482
G0 F4500 X127.341 Y11.022
G1 F1800 X210.477 Y94.158 E189.8742
G0 F4500 X210.477 Y94.653
G1 F1800 X126.846 Y11.022 E191.57365
G0 F4500 X126.351 Y11.022
G1 F1800 X210.477 Y95.148 E193.28315
G0 F4500 X210.477 Y95.643
G1 F1800 X125.856 Y11.022 E195.0027
G0 F4500 X125.361 Y11.022
G1 F1800 X210.477 Y96.138 E196.73232
G0 F4500 X210.477 Y96.633
G1 F1800 X124.866 Y11.022 E198.472
G0 F4500 X124.371 Y11.022
G1 F1800 X210.477 Y97.128 E200.22173
G0 F4500 X210.477 Y97.623
G1 F1800 X123.876 Y11.022 E201.98153
G0 F4500 X123.381 Y11.022
G1 F1800 X210.477 Y98.118 E203.75138
G0 F4500 X210.477 Y98.613
G1 F1800 X122.886 Y11.022 E205.53129
G0 F4500 X122.391 Y11.022
G1 F1800 X210.477 Y99.108 E207.32126
G0 F4500 X210.477 Y99.603
G1 F1800 X121.896 Y11.022 E209.12129
G0 F4500 X121.401 Y11.022
G1 F1800 X210.477 Y100.098 E210.93138
G0 F4500 X210.477 Y100.593
G1 F1800 X120.906 Y11.022 E212.75153
G0 F4500 X120.411 Y11.022
G1 F1800 X210.477 Y101.087 E214.58172
G0 F4500 X210.477 Y101.582
G1 F1800 X119.916 Y11.022 E216.42198
G0 F4500 X119.421 Y11.022
G1 F1800 X210.477 Y102.077 E218.27229
G0 F4500 X210.477 Y102.572
G1 F1800 X118.926 Y11.022 E220.13266
G0 F4500 X118.431 Y11.022
G1 F1800 X210.477 Y103.067 E222.00309
G0 F4500 X210.477 Y103.562
G1 F1800 X117.936 Y11.022 E223.88358
G0 F4500 X117.441 Y11.022
G1 F1800 X210.477 Y104.057 E225.77413
G0 F4500 X210.477 Y104.552
G1 F1800 X116.946 Y11.022 E227.67473
G0 F4500 X116.452 Y11.022
G1 F1800 X210.477 Y105.047 E229.58539
G0 F4500 X210.477 Y105.542
G1 F1800 X115.957 Y11.022 E231.5061
G0 F4500 X115.462 Y11.022
G1 F1800 X210.477 Y106.037 E233.43687
G0 F4500 X210.477 Y106.532
G1 F1800 X114.967 Y11.022 E235.37771
G0 F4500 X114.472 Y11.022
G1 F1800 X210.477 Y107.027 E237.3286
G0 F4500 X210.477 Y107.522
G1 F1800 X113.977 Y11.022 E239.28954
G0 F4500 X113.482 Y11.022
G1 F1800 X210.477 Y108.017 E241.26055
G0 F4500 X210.477 Y108.512
G1 F1800 X112.987 Y11.022 E243.24162
G0 F4500 X112.492 Y11.022
G1 F1800 X210.477 Y109.007 E245.23274
G0 F4500 X210.477 Y109.502
G1 F1800 X111.997 Y11.022 E247.23393
G0 F4500 X111.502 Y11.022
G1 F1800 X210.477 Y109.997 E249.24517
G0 F4500 X210.477 Y110.492
G1 F1800 X111.007 Y11.022 E251.26647
G0 F4500 X110.512 Y11.022
G1 F1800 X210.477 Y110.987 E253.29783
G0 F4500 X210.477 Y111.482
G1 F1800 X110.017 Y11.022 E255.33925
G0 F4500 X109.522 Y11.022
G1 F1800 X210.477 Y111.977 E257.39073
G0 F4500 X210.477 Y112.472
G1 F1800 X109.027 Y11.022 E259.45226
G0 F4500 X108.532 Y11.022
G1 F1800 X210.477 Y112.967 E261.52386
G0 F4500 X210.477 Y113.462
G1 F1800 X108.037 Y11.022 E263.60551
G0 F4500 X107.542 Y11.022
G1 F1800 X210.477 Y113.957 E265.69723
G0 F4500 X210.477 Y114.452
G1 F1800 X107.047 Y11.022 E267.799
G0 F4500 X106.552 Y11.022
G1 F1800 X210.477 Y114.947 E269.91083
G0 F4500 X210.477 Y115.442
G1 F1800 X106.057 Y11.022 E272.03272
G0 F4500 X105.562 Y11.022
G1 F1800 X210.477 Y115.937 E274.16466
G0 F4500 X210.477 Y116.432
G1 F1800 X105.067 Y11.022 E276.30667
G0 F4500 X104.572 Y11.022
G1 F1800 X210.477 Y116.927 E278.45873
G0 F4500 X210.477 Y117.422
G1 F1800 X104.077 Y11.022 E280.62086
G0 F4500 X103.582 Y11.022
G1 F1800 X210.477 Y117.917 E282.79304
G0 F4500 X210.477 Y118.412
G1 F1800 X103.087 Y11.022 E284.97528
G0 F4500 X102.592 Y11.022
G1 F1800 X210.477 Y118.907 E287.16758
G0 F4500 X210.477 Y119.402
