;FLAVOR:UltiGCode
;TIME:14242
;MATERIAL:26025
;MATERIAL2:0
;NOZZLE_DIAMETER:0.4
;MINX:26.311
;MINY:33.083
;MINZ:0.27
;MAXX:184.859
;MAXY:200.068
;MAXZ:28.92
;Generated with Cura_SteamEngine 4.13.1
M82 ;absolute extrusion mode
G0 F3000 Y50 ;avoid prime blob
G92 E0
G92 E0
G10
;LAYER_COUNT:192
;LAYER:0
M107
G0 F4500 X30.464 Y34.754 Z0.27
;TYPE:SKIRT
G11
G1 F1800 X31.113 Y34.298 E0.07496
G1 X31.805 Y33.909 E0.14997
G1 X32.532 Y33.591 E0.22496
G1 X33.288 Y33.348 E0.3
G1 X34.064 Y33.183 E0.37497
G1 X34.852 Y33.097 E0.44988
G1 X35.315 Y33.083 E0.49366
G1 X79.315 Y33.083 E4.65166
G1 X80.107 Y33.123 E4.72659
G1 X80.892 Y33.242 E4.80162
G1 X81.66 Y33.44 E4.87657
G1 X82.405 Y33.715 E4.95162
G1 X83.118 Y34.062 E5.02655
G1 X83.793 Y34.48 E5.10158
G1 X84.422 Y34.963 E5.17652
G1 X84.999 Y35.508 E5.25153
G1 X85.519 Y36.107 E5.32649
G1 X85.975 Y36.756 E5.40144
G1 X86.364 Y37.448 E5.47646
G1 X86.682 Y38.175 E5.55145
G1 X86.925 Y38.931 E5.62649
G1 X87.09 Y39.707 E5.70146
G1 X87.176 Y40.495 E5.77637
G1 X87.19 Y40.958 E5.82014
G1 X87.19 Y68.958 E8.46614
G1 X87.15 Y69.75 E8.54108
G1 X87.031 Y70.535 E8.61611
G1 X86.833 Y71.303 E8.69106
G1 X86.558 Y72.048 E8.76611
G1 X86.211 Y72.761 E8.84104
G1 X85.793 Y73.436 E8.91607
G1 X85.31 Y74.065 E8.99101
G1 X84.765 Y74.642 E9.06602
G1 X84.166 Y75.162 E9.14098
G1 X83.517 Y75.618 E9.21593
G1 X82.825 Y76.007 E9.29095
G1 X82.098 Y76.325 E9.36594
G1 X81.342 Y76.568 E9.44098
G1 X80.566 Y76.733 E9.51595
G1 X79.778 Y76.819 E9.59086
G1 X79.314 Y76.833 E9.63473
G1 X73.05 Y76.832 E10.22667
G1 X35.305 Y76.783 E13.79358
G1 X34.512 Y76.742 E13.86862
G1 X33.728 Y76.621 E13.94358
G1 X32.96 Y76.423 E14.01853
G1 X32.216 Y76.147 E14.09352
G1 X31.503 Y75.799 E14.1685
G1 X30.829 Y75.38 E14.2435
G1 X30.2 Y74.896 E14.3185
G1 X29.624 Y74.351 E14.39343
G1 X29.105 Y73.751 E14.4684
G1 X28.649 Y73.101 E14.54343
G1 X28.261 Y72.409 E14.61841
G1 X27.944 Y71.681 E14.69344
G1 X27.703 Y70.926 E14.76834
G1 X27.538 Y70.149 E14.8434
G1 X27.453 Y69.36 E14.91839
G1 X27.44 Y68.908 E14.96112
G1 X27.44 Y40.958 E17.6024
G1 X27.48 Y40.166 E17.67734
G1 X27.599 Y39.381 E17.75237
G1 X27.797 Y38.613 E17.82732
G1 X28.072 Y37.868 E17.90236
G1 X28.419 Y37.155 E17.9773
G1 X28.837 Y36.48 E18.05232
G1 X29.32 Y35.851 E18.12727
G1 X29.865 Y35.274 E18.20227
G1 X30.464 Y34.754 E18.27723
G0 F4500 X30.805 Y34.934
G1 F1800 X31.449 Y34.502 E18.35051
G1 X32.134 Y34.139 E18.42377
G1 X32.853 Y33.847 E18.49711
G1 X33.598 Y33.632 E18.57038
G1 X34.361 Y33.494 E18.64366
G1 X35.315 Y33.433 E18.73399
G1 X79.315 Y33.433 E22.89199
G1 X80.09 Y33.473 E22.96533
G1 X80.856 Y33.592 E23.03859
G1 X81.606 Y33.79 E23.11189
G1 X82.332 Y34.064 E23.18522
G1 X83.025 Y34.411 E23.25846
G1 X83.679 Y34.828 E23.33176
G1 X84.287 Y35.31 E23.40508
G1 X84.842 Y35.852 E23.47838
G1 X85.339 Y36.448 E23.55172
G1 X85.771 Y37.092 E23.625
G1 X86.134 Y37.777 E23.69826
G1 X86.426 Y38.496 E23.7716
G1 X86.641 Y39.241 E23.84487
G1 X86.779 Y40.004 E23.91815
G1 X86.84 Y40.958 E24.00848
G1 X86.84 Y68.958 E26.65448
G1 X86.8 Y69.733 E26.72782
G1 X86.681 Y70.499 E26.80107
G1 X86.483 Y71.249 E26.87438
G1 X86.209 Y71.975 E26.94771
G1 X85.862 Y72.668 E27.02095
G1 X85.445 Y73.322 E27.09424
G1 X84.963 Y73.93 E27.16756
G1 X84.421 Y74.485 E27.24087
G1 X83.825 Y74.982 E27.31421
G1 X83.181 Y75.414 E27.38749
G1 X82.496 Y75.777 E27.46075
G1 X81.777 Y76.069 E27.53409
G1 X81.032 Y76.284 E27.60736
G1 X80.269 Y76.422 E27.68063
G1 X79.314 Y76.483 E27.77107
G1 X73.05 Y76.482 E28.36301
G1 X35.305 Y76.433 E31.92992
G1 X34.531 Y76.392 E32.00316
G1 X33.764 Y76.272 E32.07653
G1 X33.015 Y76.073 E32.14976
G1 X32.289 Y75.798 E32.22313
G1 X31.596 Y75.45 E32.29641
G1 X30.943 Y75.032 E32.36968
G1 X30.335 Y74.55 E32.443
G1 X29.781 Y74.007 E32.51631
G1 X29.286 Y73.41 E32.58959
G1 X28.854 Y72.766 E32.66287
G1 X28.491 Y72.08 E32.73622
G1 X28.201 Y71.361 E32.80948
G1 X27.986 Y70.616 E32.88276
G1 X27.849 Y69.852 E32.95611
G1 X27.79 Y68.908 E33.04549
G1 X27.79 Y40.958 E35.68676
G1 X27.83 Y40.183 E35.7601
G1 X27.949 Y39.417 E35.83335
G1 X28.147 Y38.667 E35.90666
G1 X28.421 Y37.941 E35.97999
G1 X28.768 Y37.248 E36.05323
G1 X29.185 Y36.594 E36.12653
G1 X29.667 Y35.986 E36.19985
G1 X30.209 Y35.431 E36.27315
G1 X30.805 Y34.934 E36.34649
G0 F4500 X31.144 Y35.12
G1 F1800 X31.783 Y34.713 E36.41808
G1 X32.461 Y34.375 E36.48967
G1 X33.17 Y34.111 E36.56117
G1 X33.904 Y33.923 E36.63277
G1 X34.653 Y33.814 E36.7043
G1 X35.315 Y33.783 E36.76692
G1 X79.315 Y33.783 E40.92492
G1 X80.071 Y33.823 E40.99647
G1 X80.819 Y33.942 E41.06804
G1 X81.55 Y34.14 E41.13961
G1 X82.257 Y34.414 E41.21126
G1 X82.93 Y34.76 E41.28278
G1 X83.563 Y35.176 E41.35436
G1 X84.149 Y35.656 E41.42594
G1 X84.681 Y36.195 E41.49751
G1 X85.153 Y36.787 E41.56905
G1 X85.56 Y37.426 E41.64065
G1 X85.898 Y38.104 E41.71224
G1 X86.162 Y38.813 E41.78373
G1 X86.35 Y39.547 E41.85534
G1 X86.459 Y40.296 E41.92686
G1 X86.49 Y40.958 E41.98949
G1 X86.49 Y68.958 E44.63549
G1 X86.45 Y69.714 E44.70703
G1 X86.331 Y70.462 E44.77861
G1 X86.133 Y71.193 E44.85018
G1 X85.859 Y71.9 E44.92183
G1 X85.513 Y72.573 E44.99334
G1 X85.097 Y73.206 E45.06492
G1 X84.617 Y73.792 E45.1365
G1 X84.078 Y74.324 E45.20807
G1 X83.486 Y74.796 E45.27962
G1 X82.847 Y75.203 E45.35121
G1 X82.169 Y75.541 E45.42281
G1 X81.46 Y75.805 E45.4943
G1 X80.726 Y75.993 E45.5659
G1 X79.977 Y76.102 E45.63743
G1 X79.314 Y76.133 E45.70015
G1 X73.051 Y76.132 E46.292
G1 X35.306 Y76.083 E49.85891
G1 X34.549 Y76.042 E49.93055
G1 X33.802 Y75.922 E50.00205
G1 X33.071 Y75.723 E50.07364
G1 X32.365 Y75.448 E50.14524
G1 X31.692 Y75.101 E50.21679
G1 X31.059 Y74.685 E50.28837
G1 X30.474 Y74.204 E50.35994
G1 X29.943 Y73.664 E50.43151
G1 X29.471 Y73.071 E50.50314
G1 X29.065 Y72.432 E50.57468
G1 X28.729 Y71.754 E50.64619
G1 X28.465 Y71.044 E50.71777
G1 X28.278 Y70.31 E50.78935
G1 X28.17 Y69.56 E50.86095
G1 X28.14 Y68.908 E50.92263
G1 X28.14 Y40.958 E53.56391
G1 X28.18 Y40.202 E53.63545
G1 X28.299 Y39.454 E53.70703
G1 X28.497 Y38.723 E53.77859
G1 X28.771 Y38.016 E53.85025
G1 X29.117 Y37.343 E53.92176
G1 X29.533 Y36.71 E53.99334
G1 X30.013 Y36.124 E54.06492
G1 X30.552 Y35.592 E54.13649
G1 X31.144 Y35.12 E54.20804
G0 F4500 X30.894 Y35.758
G1 F1800 X31.482 Y35.311 E54.27784
G1 X32.115 Y34.93 E54.34766
G1 X32.785 Y34.619 E54.41746
G1 X33.485 Y34.383 E54.48727
G1 X34.206 Y34.224 E54.55704
G1 X34.941 Y34.143 E54.62692
G1 X35.315 Y34.133 E54.66227
G1 X79.315 Y34.133 E58.82027
G1 X80.053 Y34.173 E58.89012
G1 X80.781 Y34.292 E58.95982
G1 X81.493 Y34.49 E59.02966
G1 X82.179 Y34.763 E59.09943
G1 X82.832 Y35.109 E59.16927
G1 X83.444 Y35.523 E59.23909
G1 X84.007 Y36.001 E59.30889
G1 X84.515 Y36.537 E59.37867
G1 X84.962 Y37.125 E59.44847
G1 X85.343 Y37.758 E59.51829
G1 X85.654 Y38.428 E59.58809
G1 X85.89 Y39.128 E59.6579
G1 X86.049 Y39.849 E59.72767
G1 X86.13 Y40.584 E59.79755
G1 X86.14 Y40.958 E59.83291
G1 X86.14 Y68.958 E62.47891
G1 X86.1 Y69.696 E62.54875
G1 X85.981 Y70.424 E62.61846
G1 X85.783 Y71.136 E62.6883
G1 X85.51 Y71.822 E62.75807
G1 X85.164 Y72.475 E62.8279
G1 X84.75 Y73.087 E62.89773
G1 X84.272 Y73.65 E62.96752
G1 X83.736 Y74.158 E63.03731
G1 X83.148 Y74.605 E63.10711
G1 X82.515 Y74.986 E63.17693
G1 X81.845 Y75.297 E63.24673
G1 X81.145 Y75.533 E63.31654
G1 X80.424 Y75.692 E63.38631
G1 X79.689 Y75.773 E63.45619
G1 X79.314 Y75.783 E63.49164
G1 X73.051 Y75.782 E64.08349
G1 X35.306 Y75.733 E67.6504
G1 X34.569 Y75.692 E67.72015
G1 X33.84 Y75.572 E67.78997
G1 X33.128 Y75.373 E67.85983
G1 X32.442 Y75.099 E67.92964
G1 X31.79 Y74.752 E67.99943
G1 X31.179 Y74.337 E68.06923
G1 X30.617 Y73.859 E68.13895
G1 X30.109 Y73.322 E68.20881
G1 X29.663 Y72.733 E68.27863
G1 X29.283 Y72.1 E68.3484
G1 X28.973 Y71.43 E68.41816
G1 X28.738 Y70.729 E68.48803
G1 X28.579 Y70.008 E68.5578
G1 X28.49 Y68.908 E68.66209
G1 X28.49 Y40.958 E71.30336
G1 X28.53 Y40.22 E71.37321
G1 X28.649 Y39.492 E71.44292
G1 X28.847 Y38.78 E71.51275
G1 X29.12 Y38.094 E71.58252
G1 X29.466 Y37.441 E71.65236
G1 X29.88 Y36.829 E71.72218
G1 X30.358 Y36.266 E71.79198
G1 X30.894 Y35.758 E71.86176
G0 F4500 X31.236 Y35.929
G1 F1800 X31.819 Y35.508 E71.92972
G1 X32.446 Y35.154 E71.99776
G1 X33.107 Y34.871 E72.06571
G1 X33.796 Y34.664 E72.1337
G1 X34.504 Y34.534 E72.20172
G1 X35.315 Y34.483 E72.27851
G1 X79.315 Y34.483 E76.43651
G1 X80.033 Y34.523 E76.50447
G1 X80.743 Y34.642 E76.5725
G1 X81.435 Y34.84 E76.64052
G1 X82.1 Y35.113 E76.70845
G1 X82.732 Y35.458 E76.77649
G1 X83.321 Y35.871 E76.84447
G1 X83.86 Y36.347 E76.91243
G1 X84.344 Y36.879 E76.9804
G1 X84.765 Y37.462 E77.04835
G1 X85.119 Y38.089 E77.11639
G1 X85.402 Y38.75 E77.18434
G1 X85.609 Y39.439 E77.25233
G1 X85.739 Y40.147 E77.32035
G1 X85.79 Y40.958 E77.39714
G1 X85.79 Y68.958 E80.04314
G1 X85.75 Y69.676 E80.1111
G1 X85.631 Y70.386 E80.17913
G1 X85.433 Y71.078 E80.24715
G1 X85.16 Y71.743 E80.31508
G1 X84.815 Y72.375 E80.38312
G1 X84.402 Y72.964 E80.4511
G1 X83.926 Y73.503 E80.51906
G1 X83.394 Y73.987 E80.58703
G1 X82.811 Y74.408 E80.65498
G1 X82.184 Y74.762 E80.72303
G1 X81.523 Y75.045 E80.79097
G1 X80.834 Y75.252 E80.85896
G1 X80.126 Y75.382 E80.92698
G1 X79.314 Y75.433 E81.00387
G1 X73.052 Y75.432 E81.59563
G1 X35.307 Y75.383 E85.16253
G1 X34.588 Y75.342 E85.23059
G1 X33.879 Y75.222 E85.29854
G1 X33.187 Y75.023 E85.36659
G1 X32.522 Y74.75 E85.43452
G1 X31.891 Y74.404 E85.50252
G1 X31.303 Y73.99 E85.57048
G1 X30.764 Y73.514 E85.63844
G1 X30.281 Y72.98 E85.70648
G1 X29.86 Y72.397 E85.77444
G1 X29.507 Y71.77 E85.84243
G1 X29.225 Y71.108 E85.91043
G1 X29.019 Y70.419 E85.97839
G1 X28.89 Y69.711 E86.0464
G1 X28.84 Y68.908 E86.12243
G1 X28.84 Y40.958 E88.7637
G1 X28.88 Y40.24 E88.83166
G1 X28.999 Y39.53 E88.89969
G1 X29.197 Y38.838 E88.96771
G1 X29.47 Y38.173 E89.03564
G1 X29.815 Y37.541 E89.10368
G1 X30.228 Y36.952 E89.17166
G1 X30.704 Y36.413 E89.23962
G1 X31.236 Y35.929 E89.30758
G0 F4500 X31.577 Y36.106
G1 F1800 X32.155 Y35.711 E89.37374
G1 X32.774 Y35.385 E89.43985
G1 X33.426 Y35.131 E89.50598
G1 X34.103 Y34.954 E89.5721
G1 X34.796 Y34.855 E89.63826
G1 X35.315 Y34.833 E89.68735
G1 X79.315 Y34.833 E93.84535
G1 X80.014 Y34.873 E93.91151
G1 X80.703 Y34.992 E93.97759
G1 X81.374 Y35.19 E94.0437
G1 X82.019 Y35.462 E94.10985
G1 X82.628 Y35.806 E94.17595
G1 X83.194 Y36.218 E94.2421
G1 X83.709 Y36.691 E94.30818
G1 X84.167 Y37.22 E94.37431
G1 X84.562 Y37.798 E94.44046
G1 X84.888 Y38.417 E94.50657
G1 X85.142 Y39.069 E94.5727
G1 X85.319 Y39.746 E94.63883
G1 X85.418 Y40.439 E94.70498
G1 X85.44 Y40.958 E94.75407
G1 X85.44 Y68.958 E97.40007
G1 X85.4 Y69.657 E97.46623
G1 X85.281 Y70.346 E97.53231
G1 X85.083 Y71.017 E97.59842
G1 X84.811 Y71.662 E97.66457
G1 X84.467 Y72.271 E97.73067
G1 X84.055 Y72.837 E97.79682
G1 X83.582 Y73.352 E97.8629
G1 X83.053 Y73.81 E97.92903
G1 X82.475 Y74.205 E97.99518
G1 X81.856 Y74.531 E98.0613
G1 X81.204 Y74.785 E98.12742
G1 X80.527 Y74.962 E98.19355
G1 X79.834 Y75.061 E98.2597
G1 X79.314 Y75.083 E98.30888
G1 X73.052 Y75.082 E98.90064
G1 X35.307 Y75.033 E102.46755
G1 X34.609 Y74.992 E102.53362
G1 X33.919 Y74.872 E102.59981
G1 X33.248 Y74.674 E102.66592
G1 X32.604 Y74.4 E102.73206
G1 X31.995 Y74.055 E102.7982
G1 X31.43 Y73.643 E102.86428
G1 X30.915 Y73.169 E102.93042
G1 X30.458 Y72.64 E102.99649
G1 X30.064 Y72.061 E103.06267
G1 X29.739 Y71.442 E103.12874
G1 X29.486 Y70.789 E103.19491
G1 X29.31 Y70.112 E103.26102
G1 X29.211 Y69.419 E103.32717
G1 X29.19 Y68.908 E103.3755
G1 X29.19 Y40.958 E106.01678
G1 X29.23 Y40.259 E106.08294
G1 X29.349 Y39.57 E106.14901
G1 X29.547 Y38.899 E106.21513
G1 X29.819 Y38.254 E106.28128
G1 X30.163 Y37.645 E106.34737
G1 X30.575 Y37.079 E106.41353
G1 X31.048 Y36.564 E106.47961
G1 X31.577 Y36.106 E106.54573
G0 F4500 X31.917 Y36.289
G1 F1800 X32.489 Y35.922 E106.60996
G1 X33.1 Y35.625 E106.67416
G1 X33.742 Y35.401 E106.73841
G1 X34.405 Y35.255 E106.80257
G1 X35.315 Y35.183 E106.88883
G1 X79.315 Y35.183 E111.04683
G1 X79.993 Y35.223 E111.11101
G1 X80.662 Y35.342 E111.17523
G1 X81.312 Y35.539 E111.23941
G1 X81.935 Y35.811 E111.30365
G1 X82.521 Y36.155 E111.36786
G1 X83.063 Y36.565 E111.43209
G1 X83.553 Y37.035 E111.49625
G1 X83.984 Y37.56 E111.56044
G1 X84.351 Y38.132 E111.62466
G1 X84.648 Y38.743 E111.68886
G1 X84.872 Y39.385 E111.75312
G1 X85.018 Y40.048 E111.81727
G1 X85.09 Y40.958 E111.90354
G1 X85.09 Y68.958 E114.54954
G1 X85.05 Y69.636 E114.61372
G1 X84.931 Y70.305 E114.67793
G1 X84.734 Y70.955 E114.74212
G1 X84.462 Y71.578 E114.80636
G1 X84.118 Y72.164 E114.87057
G1 X83.708 Y72.706 E114.93479
G1 X83.238 Y73.196 E114.99895
G1 X82.713 Y73.627 E115.06314
G1 X82.141 Y73.994 E115.12737
G1 X81.53 Y74.291 E115.19157
G1 X80.888 Y74.515 E115.25582
G1 X80.225 Y74.661 E115.31998
G1 X79.314 Y74.733 E115.40634
G1 X73.053 Y74.732 E115.998
G1 X35.308 Y74.683 E119.56491
G1 X34.629 Y74.642 E119.62919
G1 X33.961 Y74.522 E119.69332
G1 X33.311 Y74.324 E119.75754
G1 X32.688 Y74.051 E119.82181
G1 X32.103 Y73.707 E119.88595
G1 X31.561 Y73.297 E119.95017
G1 X31.072 Y72.825 E120.01439
G1 X30.641 Y72.3 E120.07858
G1 X30.275 Y71.728 E120.14276
G1 X29.979 Y71.116 E120.207
G1 X29.756 Y70.474 E120.27122
G1 X29.611 Y69.81 E120.33545
G1 X29.54 Y68.908 E120.42095
G1 X29.54 Y40.958 E123.06223
G1 X29.58 Y40.28 E123.12641
G1 X29.699 Y39.611 E123.19062
G1 X29.896 Y38.961 E123.25481
G1 X30.168 Y38.338 E123.31905
G1 X30.512 Y37.752 E123.38326
G1 X30.922 Y37.21 E123.44748
G1 X31.392 Y36.72 E123.51165
G1 X31.917 Y36.289 E123.57584
G0 F4500 X31.735 Y36.882
G1 F1800 X32.256 Y36.478 E123.63814
G1 X32.821 Y36.14 E123.70036
G1 X33.423 Y35.874 E123.76255
G1 X34.053 Y35.682 E123.82479
G1 X34.701 Y35.568 E123.88697
G1 X35.315 Y35.533 E123.94508
G1 X79.315 Y35.533 E128.10308
G1 X79.972 Y35.573 E128.16528
G1 X80.62 Y35.692 E128.22754
G1 X81.248 Y35.889 E128.28974
G1 X81.848 Y36.161 E128.352
G1 X82.411 Y36.503 E128.41425
G1 X82.928 Y36.911 E128.47648
G1 X83.391 Y37.378 E128.53863
G1 X83.795 Y37.899 E128.60093
G1 X84.133 Y38.464 E128.66315
G1 X84.399 Y39.066 E128.72534
G1 X84.591 Y39.696 E128.78758
G1 X84.705 Y40.344 E128.84976
G1 X84.74 Y40.958 E128.90788
G1 X84.74 Y68.958 E131.55388
G1 X84.7 Y69.615 E131.61608
G1 X84.581 Y70.263 E131.67834
G1 X84.384 Y70.891 E131.74054
G1 X84.112 Y71.491 E131.80279
G1 X83.77 Y72.054 E131.86504
G1 X83.362 Y72.571 E131.92728
G1 X82.895 Y73.034 E131.98942
G1 X82.374 Y73.438 E132.05172
G1 X81.809 Y73.776 E132.11394
G1 X81.207 Y74.042 E132.17614
G1 X80.577 Y74.234 E132.23838
G1 X79.929 Y74.348 E132.30055
G1 X79.314 Y74.383 E132.35876
G1 X73.053 Y74.382 E132.95043
G1 X35.308 Y74.333 E136.51733
G1 X34.651 Y74.292 E136.57954
G1 X34.003 Y74.172 E136.64182
G1 X33.375 Y73.974 E136.70404
G1 X32.776 Y73.702 E136.76621
G1 X32.214 Y73.359 E136.82843
G1 X31.697 Y72.95 E136.89073
G1 X31.234 Y72.482 E136.95294
G1 X30.831 Y71.962 E137.01511
G1 X30.494 Y71.396 E137.07736
G1 X30.228 Y70.793 E137.13964
G1 X30.037 Y70.163 E137.20185
G1 X29.924 Y69.515 E137.26401
G1 X29.89 Y68.908 E137.32146
G1 X29.89 Y40.958 E139.96274
G1 X29.93 Y40.301 E140.02494
G1 X30.049 Y39.653 E140.0872
G1 X30.246 Y39.025 E140.1494
G1 X30.518 Y38.425 E140.21165
G1 X30.86 Y37.862 E140.2739
G1 X31.268 Y37.345 E140.33614
G1 X31.735 Y36.882 E140.39828
G0 F4500 X32.078 Y37.05
G1 F1800 X32.593 Y36.675 E140.45849
G1 X33.15 Y36.368 E140.51859
G1 X33.742 Y36.133 E140.57878
G1 X34.359 Y35.974 E140.63899
G1 X34.991 Y35.893 E140.6992
G1 X35.315 Y35.883 E140.72984
G1 X79.315 Y35.883 E144.88784
G1 X79.951 Y35.923 E144.94806
G1 X80.576 Y36.042 E145.00818
G1 X81.182 Y36.239 E145.0684
G1 X81.758 Y36.51 E145.12855
G1 X82.296 Y36.851 E145.18875
G1 X82.787 Y37.257 E145.24895
G1 X83.223 Y37.721 E145.30912
G1 X83.598 Y38.236 E145.36932
G1 X83.905 Y38.793 E145.42943
G1 X84.14 Y39.385 E145.48962
G1 X84.299 Y40.002 E145.54983
G1 X84.38 Y40.634 E145.61004
G1 X84.39 Y40.958 E145.64067
G1 X84.39 Y68.958 E148.28667
G1 X84.35 Y69.594 E148.34689
G1 X84.231 Y70.219 E148.40702
G1 X84.034 Y70.825 E148.46723
G1 X83.763 Y71.401 E148.52739
G1 X83.422 Y71.939 E148.58758
G1 X83.016 Y72.43 E148.64779
G1 X82.552 Y72.866 E148.70796
G1 X82.037 Y73.241 E148.76816
G1 X81.48 Y73.548 E148.82826
G1 X80.888 Y73.783 E148.88845
G1 X80.271 Y73.942 E148.94867
G1 X79.639 Y74.023 E149.00888
G1 X79.314 Y74.033 E149.03961
